icons/stairs-down.svg

<?xml version="1.0" encoding="UTF-8"?><svg xmlns="http://www.w3.org/2000/svg" viewBox="0 0 50 50"><g id="uuid-09f3da86-9cb3-465c-8ff8-3ee43e7e8f12"><g><path d="M47.88,11.78h-11.63c-.28,0-.5,.22-.5,.5v6.14h-11.13c-.28,0-.5,.22-.5,.5v6.22H13c-.28,0-.5,.22-.5,.5v6.22H1.37c-.28,0-.5,.22-.5,.5v11.64c0,.28,.22,.5,.5,.5H47.88c.28,0,.5-.22,.5-.5V12.28c0-.28-.22-.5-.5-.5Zm-.5,31.71H1.87v-10.64H13c.28,0,.5-.22,.5-.5v-6.22h11.13c.28,0,.5-.22,.5-.5v-6.22h11.13c.28,0,.5-.22,.5-.5v-6.14h10.63v30.71Z"/><path d="M7.36,16.32c.06,.11,.16,.18,.27,.22,.03,.01,.05,.03,.08,.04l7.89,2.4s.1,.02,.15,.02c.21,0,.41-.14,.48-.35,.08-.26-.07-.54-.33-.62l-6.79-2.07L28.33,5.7c.24-.13,.34-.43,.21-.68-.13-.25-.44-.34-.68-.21L8.55,15.12l2.09-6.86c.08-.26-.07-.54-.33-.62-.27-.08-.54,.07-.62,.33l-2.4,7.89c-.05,.15-.01,.3,.07,.42,0,.01,0,.03,.01,.04Z"/></g></g><g id="uuid-f69f18d9-92d8-41c5-a380-75269372e10b"><text transform="translate(-.16 55.05)" font-family="Roboto-Regular, Roboto" font-size="6"><tspan x="0" y="0">stairs-down</tspan></text></g></svg>

<svg xmlns="http://www.w3.org/2000/svg" viewBox="0 0 50 50"><g id="b926ac9a-db93-46af-bd26-a40f47314383" data-name="ICONS"><path d="M47.88,11.78H36.25a.5.5,0,0,0-.5.5v6.14H24.62a.5.5,0,0,0-.5.5v6.21H13a.5.5,0,0,0-.5.5v6.22H1.37a.5.5,0,0,0-.5.5V44a.5.5,0,0,0,.5.5H47.88a.5.5,0,0,0,.5-.5V12.28A.5.5,0,0,0,47.88,11.78Zm-.5,31.71H1.87V32.85H13a.5.5,0,0,0,.5-.5V26.13H24.62a.5.5,0,0,0,.5-.5V19.42H36.25a.5.5,0,0,0,.5-.5V12.78H47.38Z"/><path d="M7.36,16.32a.49.49,0,0,0,.27.22l.08,0L15.6,19l.15,0a.49.49,0,0,0,.47-.35.5.5,0,0,0-.33-.63L9.1,16,28.33,5.7a.5.5,0,0,0,.2-.68.49.49,0,0,0-.67-.2L8.55,15.12l2.09-6.86a.5.5,0,1,0-1-.29l-2.4,7.89a.53.53,0,0,0,.07.42A.08.08,0,0,0,7.36,16.32Z"/></g><g id="a5e12ba5-7335-499c-bc7a-21ecf4bd7d5c" data-name="LABELS"><text transform="translate(-0.16 55.05)" font-size="6" font-family="Roboto-Regular, Roboto">stairs-down</text></g></svg>
